bootstrap/window-desktop.svg

<svg xmlns="http://www.w3.org/2000/svg" width="16" height="16" fill="currentColor" class="bi bi-window-desktop" viewBox="0 0 16 16">
  <path d="M3.5 11a.5.5 0 0 0-.5.5v1a.5.5 0 0 0 .5.5h9a.5.5 0 0 0 .5-.5v-1a.5.5 0 0 0-.5-.5z"/>
  <path d="M2.375 1A2.366 2.366 0 0 0 0 3.357v9.286A2.366 2.366 0 0 0 2.375 15h11.25A2.366 2.366 0 0 0 16 12.643V3.357A2.366 2.366 0 0 0 13.625 1zM1 3.357C1 2.612 1.611 2 2.375 2h11.25C14.389 2 15 2.612 15 3.357V4H1zM1 5h14v7.643c0 .745-.611 1.357-1.375 1.357H2.375A1.366 1.366 0 0 1 1 12.643z"/>
</svg>

<svg viewBox="0 0 16 16" xmlns="http://www.w3.org/2000/svg"><g><path d="M3.5 11v0c-.28 0-.5.22-.5.5v1 0c0 .27.22.5.5.5h9v0c.27 0 .5-.23.5-.5v-1 0c0-.28-.23-.5-.5-.5h-9Z"/><path d="M2.37 1h0C1.06.99-.01 2.05-.01 3.35c-.01 0-.01 0-.01 0v9.28 0c0 1.3 1.06 2.36 2.37 2.35 0-.01 0-.01 0-.01H13.6v0c1.3 0 2.37-1.06 2.37-2.36 0-.01 0-.01 0-.01V3.31v0C15.96 2 14.9.94 13.59.95c-.01 0-.01 0-.01 0H2.33ZM.99 3.35c0-.75.611-1.36 1.37-1.36h11.25c.76 0 1.375.61 1.375 1.35v.64h-14v-.65Zm0 1.64h14v7.64c0 .74-.62 1.35-1.375 1.35H2.365v0c-.76 0-1.38-.61-1.38-1.36 -.01-.01-.01-.01-.01-.01V4.96Z"/></g></svg>
